X:392
T:Gen’l Washingtons March. RH.392
R:march
S:Rev.R.Harrison’s MS,c1815,Cumbria
O:England
A:Temple Sowerby,Cumbria
Z:vmp.Simon Wilson. Review PJH, 2008.
M:C
L:1/8
Q:1/4=100
K:G
D2|G2G>G GBdB|A>GAB A2GA|\
B>ABc Bc (d/c/B/A/)|B2G>G G2:|!
g>f|e2c>c c2a/g/f/e/|d2B>B B2G/B/d/g/|\
c2A>A Aedc|B2G>G G2d>c|\
((3Bcd) ((3efg) B2A2|G2G>G G2||!
g>a|g/a/b G>G G2g>a|g/a/b G>G G2g>f|\
e>fga bgfg|e2e>e e2a/g/f/e/|!
d^c de dg bd|c>Bcd cedc|\
B>ABc B2A2{GA}|G2G>G G2|]

